src/food-drink/food-vegetable/1F344.svg

<svg id="emoji" viewBox="0 0 72 72" xmlns="http://www.w3.org/2000/svg">
  <g id="grid">
    <path fill="#b3b3b3" d="M68,4V68H4V4H68m4-4H0V72H72V0Z"/>
    <path fill="none" stroke="#00a5ff" stroke-miterlimit="10" stroke-width="0.1" d="M12.923,10.9583H59.0769A1.9231,1.9231,0,0,1,61,12.8814V59.0352a1.9231,1.9231,0,0,1-1.9231,1.9231H12.9231A1.9231,1.9231,0,0,1,11,59.0352V12.8813A1.923,1.923,0,0,1,12.923,10.9583Z"/>
    <rect x="16" y="4" rx="2.2537" width="40" height="64" fill="none" stroke="#00a5ff" stroke-miterlimit="10" stroke-width="0.1"/>
    <rect x="16" y="4" rx="2.2537" width="40" height="64" transform="translate(72) rotate(90)" fill="none" stroke="#00a5ff" stroke-miterlimit="10" stroke-width="0.1"/>
    <circle cx="36" cy="36" r="29" fill="none" stroke="#00a5ff" stroke-miterlimit="10" stroke-width="0.1"/>
  </g>
  <g id="color">
    <path fill="#D0CFCE" stroke="#D0CFCE" stroke-linecap="round" stroke-linejoin="round" stroke-miterlimit="10" stroke-width="2" d="M27.1244,42.9616v11.2545c0,0-0.1171,1.9012,2.5264,1.9012s11.7694,0,11.7694,0s2.2545,0.5562,2.2545-2.4086 c0-1.6448,0-6.6322,0-10.7472"/>
    <path fill="#D0CFCE" stroke="none" stroke-linecap="round" stroke-linejoin="round" stroke-miterlimit="10" stroke-width="2" d="M27.1244,46.7322v8.0389c0,0-0.1171,1.358,2.5264,1.358s11.7694,0,11.7694,0s2.2545,0.3973,2.2545-1.7204 c0-1.1748,0-4.7373,0-7.6766"/>
    <path fill="#EA5A47" stroke="none" d="M60.996,33.9584c0,8.8366-11.1929,9-25,9s-25-0.1634-25-9s11.1929-23,25-23S60.996,25.1218,60.996,33.9584 z"/>
    <path fill="none" stroke="#FFFFFF" stroke-linecap="round" stroke-linejoin="round" stroke-miterlimit="10" stroke-width="2" d="M60.996,33.9584c0,8.8366-11.1929,9-25,9s-25-0.1634-25-9s11.1929-23,25-23S60.996,25.1218,60.996,33.9584z"/>
    <path fill="#D22F27" stroke="none" d="M60.996,33.9591c0,8.8374-11.194,9.0023-25.0039,9.0023c33.1736-7.5962,0-32.0031,0-32.0031 C49.802,10.9583,60.996,25.1217,60.996,33.9591z"/>
    <path fill="#FFFFFF" stroke="none" stroke-linecap="round" stroke-linejoin="round" stroke-miterlimit="10" stroke-width="2" d="M22.7421,15.3869c0,0,4.6919,14.1211-10.9254,14.0122C11.8167,29.399,14.8217,20.3354,22.7421,15.3869z"/>
    <ellipse cx="35.996" cy="30.1489" rx="8.0208" ry="6.1759" transform="matrix(0.9993 -0.0382 0.0382 0.9993 -1.1252 1.3968)" fill="#FFFFFF" stroke="none" stroke-linecap="round" stroke-linejoin="round" stroke-miterlimit="10" stroke-width="2"/>
    <path fill="#D0CFCE" stroke="none" stroke-linecap="round" stroke-linejoin="round" stroke-miterlimit="10" stroke-width="2" d="M49.1551,15.3869c0,0-4.6919,14.1211,10.9254,14.0122C60.0804,29.399,57.0754,20.3354,49.1551,15.3869z"/>
  </g>
  <g id="hair"/>
  <g id="skin"/>
  <g id="skin-shadow"/>
  <g id="line">
    <path fill="none" stroke="#000000" stroke-linecap="round" stroke-linejoin="round" stroke-miterlimit="10" stroke-width="2" d="M27.1244,46.7322v8.0389c0,0-0.1171,1.358,2.5264,1.358s11.7694,0,11.7694,0s2.2545,0.3973,2.2545-1.7204 c0-1.1748,0-4.7373,0-7.6766"/>
    <path fill="none" stroke="#000000" stroke-linecap="round" stroke-linejoin="round" stroke-miterlimit="10" stroke-width="2" d="M60.996,33.9584c0,8.8366-11.1929,9-25,9s-25-0.1634-25-9s11.1929-23,25-23S60.996,25.1218,60.996,33.9584z"/>
    <path fill="none" stroke="#000000" stroke-linecap="round" stroke-linejoin="round" stroke-miterlimit="10" stroke-width="2" d="M60.996,33.9584c0,8.8366-11.1929,9-25,9s-25-0.1634-25-9s11.1929-23,25-23S60.996,25.1218,60.996,33.9584z"/>
    <path fill="none" stroke="#000000" stroke-linecap="round" stroke-linejoin="round" stroke-miterlimit="10" stroke-width="2" d="M22.7421,15.3869c0,0,4.6919,14.1211-10.9254,14.0122C11.8167,29.399,14.8217,20.3354,22.7421,15.3869z"/>
    <ellipse cx="35.996" cy="30.1489" rx="8.0208" ry="6.1759" transform="matrix(0.9993 -0.0382 0.0382 0.9993 -1.1252 1.3968)" fill="none" stroke="#000000" stroke-linecap="round" stroke-linejoin="round" stroke-miterlimit="10" stroke-width="2"/>
    <path fill="none" stroke="#000000" stroke-linecap="round" stroke-linejoin="round" stroke-miterlimit="10" stroke-width="2" d="M49.1551,15.3869c0,0-4.6919,14.1211,10.9254,14.0122C60.0804,29.399,57.0754,20.3354,49.1551,15.3869z"/>
  </g>
</svg>

<svg viewBox="0 0 72 72" xmlns="http://www.w3.org/2000/svg"><path fill="#b3b3b3" d="M68 4v64H4V4h64m4-4H0v72h72V0z"/><path fill="none" stroke="#00a5ff" stroke-miterlimit="10" stroke-width=".1" d="M12.923 10.958h46.154A1.923 1.923 0 0161 12.881v46.154a1.923 1.923 0 01-1.923 1.923H12.923A1.923 1.923 0 0111 59.035V12.881a1.923 1.923 0 011.923-1.923z"/><rect x="16" y="4" rx="2.254" width="40" height="64" fill="none" stroke="#00a5ff" stroke-miterlimit="10" stroke-width=".1"/><rect x="16" y="4" rx="2.254" width="40" height="64" transform="rotate(90 36 36)" fill="none" stroke="#00a5ff" stroke-miterlimit="10" stroke-width=".1"/><circle cx="36" cy="36" r="29" fill="none" stroke="#00a5ff" stroke-miterlimit="10" stroke-width=".1"/><g stroke-linecap="round" stroke-miterlimit="10" stroke-width="6" stroke="#fff" fill="none" stroke-linejoin="round"><path d="M27.124 46.732v8.04s-.117 1.357 2.527 1.357h11.77s2.254.397 2.254-1.72v-7.677m17.321-12.774c0 8.837-11.193 9-25 9s-25-.163-25-9 11.193-23 25-23 25 14.164 25 23z"/><path d="M60.996 33.958c0 8.837-11.193 9-25 9s-25-.163-25-9 11.193-23 25-23 25 14.164 25 23z"/><path d="M22.742 15.387s4.692 14.121-10.925 14.012c0 0 3.005-9.064 10.925-14.012z"/><ellipse cx="35.996" cy="30.149" rx="8.021" ry="6.176" transform="rotate(-2.189 35.99 30.143)"/><path d="M49.155 15.387S44.463 29.508 60.08 29.399c0 0-3.005-9.064-10.925-14.012z"/></g><path fill="#D0CFCE" stroke="#D0CFCE" stroke-linecap="round" stroke-linejoin="round" stroke-miterlimit="10" stroke-width="2" d="M27.124 42.962v11.254s-.117 1.901 2.527 1.901h11.77s2.254.557 2.254-2.408V42.96"/><path fill="#D0CFCE" d="M27.124 46.732v8.04s-.117 1.357 2.527 1.357h11.77s2.254.397 2.254-1.72v-7.677"/><path fill="#EA5A47" d="M60.996 33.958c0 8.837-11.193 9-25 9s-25-.163-25-9 11.193-23 25-23 25 14.164 25 23z"/><path fill="none" stroke="#FFF" stroke-linecap="round" stroke-linejoin="round" stroke-miterlimit="10" stroke-width="2" d="M60.996 33.958c0 8.837-11.193 9-25 9s-25-.163-25-9 11.193-23 25-23 25 14.164 25 23z"/><path fill="#D22F27" d="M60.996 33.96c0 8.836-11.194 9.001-25.004 9.001 33.174-7.596 0-32.003 0-32.003 13.81 0 25.004 14.164 25.004 23.001z"/><path fill="#FFF" d="M22.742 15.387s4.692 14.121-10.925 14.012c0 0 3.005-9.064 10.925-14.012z"/><ellipse cx="35.996" cy="30.149" rx="8.021" ry="6.176" transform="rotate(-2.189 35.99 30.143)" fill="#FFF"/><path fill="#D0CFCE" d="M49.155 15.387S44.463 29.508 60.08 29.399c0 0-3.005-9.064-10.925-14.012z"/><g fill="none" stroke="#000" stroke-linecap="round" stroke-linejoin="round" stroke-miterlimit="10" stroke-width="2"><path d="M27.124 46.732v8.04s-.117 1.357 2.527 1.357h11.77s2.254.397 2.254-1.72v-7.677m17.321-12.774c0 8.837-11.193 9-25 9s-25-.163-25-9 11.193-23 25-23 25 14.164 25 23z"/><path d="M60.996 33.958c0 8.837-11.193 9-25 9s-25-.163-25-9 11.193-23 25-23 25 14.164 25 23z"/><path d="M22.742 15.387s4.692 14.121-10.925 14.012c0 0 3.005-9.064 10.925-14.012z"/><ellipse cx="35.996" cy="30.149" rx="8.021" ry="6.176" transform="rotate(-2.189 35.99 30.143)"/><path d="M49.155 15.387S44.463 29.508 60.08 29.399c0 0-3.005-9.064-10.925-14.012z"/></g></svg>
